X: 68
T: Bei mir bist du sch\"on  [Gm]
C: Lyrics: Jacob Jacobs 1932
C: Melody: Sholom Secunda 1932
Z: 2009 John Chambers <jc:trillian.mit.edu>
S: handwritten MS of unknown origin, with notation "V-12"
M: C
L: 1/8
K: Gm
|:"D7"zDGA \
| "Gm"B2B2 BAGc- | "Cm6"cA3 "D7"zDGB \
| "Gm"B2B2 BAGc- | "Cm6"cA3 "D7"zDGB \
| "Gm"B2B2 BAGc- | "Cm6"cc2c- c2BA |
|1 "Gm"B2B2 "Eb"BAGA- | "D7"A4 \
:|2 "A7"^c2c2 c2Bd- | "D"d4  \
|: "D7"z2 D2 \
| "Gm"B4 "D7"A2GB- | "Gm"B4 "D7"z2D2 \
| "Gm"B4 "D7"A2GB- | "Gm"B4 "A7"z2B2 |
| "D7"A4 ^F2DA- | AA3 B2AG- \
|1 "Gm"G8- | G4 \
:|2 "Gm"G8 | z2G2 "D7"A2"Gm"B2 \
|| "Cm"c4 G2c2- | cc3 B2G2 |
| "Gm"B4 B2GB- | B2G2 "D7"A2"Gm"B2 \
| "Cm"c4 G2c2- | c2B2 A2G2 \
| "D7"z2d2 d2dd- | d6 D2 ||
| "Gm"B4 "D7"A2GB- | "Gm"B4 "D7"z2D2 \
| "Gm"B4 "D7"A2GB- | "Gm"B4 z2 B2 \
| "D7"A4 ^F2D2 | A2A2 B2AG- \
| "Gm"G8- | G4 |]
